src/images/qforma.svg

<svg width="196px" height="60px" viewBox="0 0 196 60" version="1.1" xmlns="http://www.w3.org/2000/svg" xmlns:xlink="http://www.w3.org/1999/xlink" xmlns:sketch="http://www.bohemiancoding.com/sketch/ns">
    <defs>
        <linearGradient x1="0.00396935486%" y1="50.0003605%" x2="100.002161%" y2="50.0003605%" id="linearGradient-1">
            <stop stop-color="#EE2A7B" offset="0%"></stop>
            <stop stop-color="#BE1E2D" offset="100%"></stop>
        </linearGradient>
        <linearGradient x1="0.000824732753%" y1="50.0003778%" x2="100.001955%" y2="50.0003778%" id="linearGradient-2">
            <stop stop-color="#F7A51D" offset="0%"></stop>
            <stop stop-color="#D4605C" offset="100%"></stop>
        </linearGradient>
        <linearGradient x1="62.8621012%" y1="49.9995688%" x2="99.5986882%" y2="49.9995688%" id="linearGradient-3">
            <stop stop-color="#0076C0" offset="0%"></stop>
            <stop stop-color="#B0CBEA" offset="100%"></stop>
        </linearGradient>
        <linearGradient x1="99.0212291%" y1="60.1562976%" x2="-2.08473614%" y2="33.3979814%" id="linearGradient-4">
            <stop stop-color="#669C54" offset="0%"></stop>
            <stop stop-color="#ADD7A1" offset="100%"></stop>
        </linearGradient>
    </defs>
    <g id="Page-1">
        <g id="beeldmerk" class="logo__image">
            <path id="beeldmerk__left"   fill="url(#linearGradient-1)" d="M15.8705175,4.75793103 C10.8053566,8.34068966 9.34426573,15.7662069 11.0506993,21.8317241 C13.0148112,28.802069 21.1104336,30.8310345 25.2634406,35.8358621 C28.639986,39.9013793 27.564042,45.8765517 23.0162937,48.3027586 C17.6071049,51.1931034 11.4577762,48.6089655 7.12727273,43.8675862 C2.79745455,39.1262069 -1.176,30.4110345 0.451622378,22.9041379 C2.34103497,14.182069 7.4993986,7.45793103 15.8705175,4.75793103"></path>
            <path id="beeldmerk__top"    fill="url(#linearGradient-2)" sketch:type="MSShapeGroup" d="M22.5591888,29.5889655 C14.9857762,25.4896552 14.0201678,19.8551724 13.8323916,17.8696552 C12.5947133,4.78482759 28.1403916,-2.03034483 39.655049,0.939310345 C51.8440559,4.08275862 52.3237762,14.0572414 52.3237762,14.0572414 C40.6747972,12.0703448 29.7481399,13.9496552 24.8961119,19.4344828 C19.8240979,25.1703448 22.5591888,29.5889655 22.5591888,29.5889655 L22.5591888,29.5889655 Z"></path>
            <path id="beeldmerk__bottom" fill="url(#linearGradient-3)" d="M23.8784196,20.7710345 C25.0927972,19.4310345 27.119958,18.7531034 28.8928671,18.5393103 C47.6506154,16.2634483 58.1982937,33.5565517 48.9766993,49.7496552 C43.3838462,59.5703448 29.5726993,63.1406897 19.5342098,57.0593103 C17.5200699,55.8386207 15.8622937,54.7468966 14.1983497,53.0648276 C14.1983497,53.0648276 13.3711748,52.1110345 14.1983497,51.4944828 C14.8418601,51.2627586 15.9952448,51.7193103 15.9952448,51.7193103 C18.092993,52.3068966 21.1844476,52.0586207 24.436951,51.4006897 C33.1383916,48.9710345 39.0464895,40.8524138 38.2371329,31.4965517 C37.5901958,24.0241379 28.0293706,18.3372414 23.1841958,21.7772414 C23.1848811,21.7758621 23.4261119,21.2682759 23.8784196,20.7710345 L23.8784196,20.7710345 Z"></path>
            <path id="beeldmerk__right"  fill="url(#linearGradient-4)" d="M23.1848811,21.7758621 C25.8966713,16.8524138 29.6357483,14.6365517 35.0771469,13.5868966 C41.2648531,12.3951724 49.0938881,12.2144828 54.8416224,15.0862069 C62.2834545,18.8055172 65.4708531,28.802069 63.2333007,36.5358621 C61.382951,42.9310345 55.2233427,48.8372414 48.4606573,50.302069 C48.976014,50.1896552 49.5297483,48.6048276 49.8662378,47.7455172 C52.9289091,39.7986207 52.2545594,29.5889655 45.7426993,23.8862069 C40.7220839,19.4868966 33.8134266,17.7524138 27.2419441,19.3268966 C26.1605175,19.5841379 23.7667133,20.7206897 23.1848811,21.7758621 L23.1848811,21.7758621 Z"></path>
        </g>
        <g id="tekst" class="logo__text">
            <path d="M93.6969091,47.8441379 L90.085986,47.8441379 C89.6542378,47.8441379 89.3013007,47.4889655 89.3013007,47.0537931 L89.3013007,40.0634483 C87.8491189,40.2606897 86.4757483,40.34 85.5341259,40.34 C79.2155245,40.34 76.1535385,36.5882759 76.1535385,30.4268966 L76.1535385,27.3855172 C76.1535385,21.2248276 79.2148392,17.4724138 85.5341259,17.4724138 C88.0458042,17.4724138 90.9892308,17.8675862 93.4220979,18.4993103 C94.3246573,18.7365517 94.4815944,18.9731034 94.4815944,19.5655172 L94.4815944,47.0531034 C94.4815944,47.4889655 94.1286573,47.8441379 93.6969091,47.8441379 Z M89.3013007,22.0151724 C88.5563636,21.8572414 86.9465594,21.7386207 85.5341259,21.7386207 C82.158951,21.7386207 81.3345175,24.1482759 81.3345175,27.3862069 L81.3345175,30.4275862 C81.3345175,33.6662069 82.158951,36.0751724 85.5341259,36.0751724 C86.4764336,36.0751724 88.2020559,35.9572414 89.3013007,35.7986207 L89.3013007,22.0151724 Z" id="Shape" fill="#2F3B49" sketch:type="MSShapeGroup"></path>
            <path d="M110.182154,13.4448276 L108.415413,13.4448276 C106.531483,13.4448276 106.099734,13.8793103 106.099734,15.8144828 L106.099734,17.7503448 L109.867594,17.7503448 C110.299343,17.7503448 110.652965,18.1055172 110.652965,18.54 L110.652965,20.9096552 C110.652965,21.3441379 110.298657,21.66 109.867594,21.66 L106.099734,21.66 L106.099734,39.1951724 C106.099734,39.6296552 105.747483,40.0248276 105.315049,40.0248276 L101.743874,40.0248276 C101.312126,40.0248276 100.919441,39.6296552 100.919441,39.1951724 L100.919441,21.66 L97.4263916,21.1068966 C96.9946434,21.0282759 96.6417063,20.7910345 96.6417063,20.3565517 L96.6417063,18.54 C96.6417063,18.1055172 96.9946434,17.7503448 97.4263916,17.7503448 L100.919441,17.7503448 L100.919441,15.8144828 C100.919441,10.72 103.627119,9.49517241 107.709538,9.49517241 C108.651161,9.49517241 109.319343,9.65310345 110.064965,9.81103448 C110.378154,9.89034483 110.771524,10.0875862 110.771524,10.4427586 L110.771524,12.7731034 C110.771524,13.2475862 110.456965,13.4448276 110.182154,13.4448276 L110.182154,13.4448276 Z" id="Shape" fill="#2F3B49" sketch:type="MSShapeGroup"></path>
            <path d="M120.857986,40.3406897 C114.696322,40.3406897 111.477399,36.1544828 111.477399,30.5068966 L111.477399,27.3075862 C111.477399,21.66 114.695636,17.4737931 120.857986,17.4737931 C127.018965,17.4737931 130.237203,21.66 130.237203,27.3075862 L130.237203,30.5068966 C130.236517,36.1537931 127.018965,40.3406897 120.857986,40.3406897 Z M125.056909,27.3075862 C125.056909,24.0689655 123.604727,21.9758621 120.857301,21.9758621 C118.109874,21.9758621 116.657692,24.0689655 116.657692,27.3075862 L116.657692,30.5068966 C116.657692,33.7448276 118.109874,35.8386207 120.857301,35.8386207 C123.604727,35.8386207 125.056909,33.7448276 125.056909,30.5068966 L125.056909,27.3075862 Z" id="Shape" fill="#2F3B49" sketch:type="MSShapeGroup"></path>
            <path d="M144.288895,21.8965517 C142.169902,21.8965517 140.521035,22.4496552 138.873538,23.3186207 L138.873538,39.1951724 C138.873538,39.6296552 138.519231,40.0248276 138.088168,40.0248276 L134.478615,40.0248276 C134.046867,40.0248276 133.693245,39.6296552 133.693245,39.1951724 L133.693245,18.5393103 C133.693245,18.1048276 134.047552,17.7496552 134.478615,17.7496552 L137.892168,17.7496552 C138.323916,17.7496552 138.676853,18.1048276 138.676853,18.5393103 L138.676853,19.3689655 C140.600531,17.8682759 142.718839,17.4731034 144.288895,17.4731034 C144.720643,17.4731034 145.074266,17.8282759 145.074266,18.2627586 L145.074266,21.1062069 C145.074266,21.5413793 144.720643,21.8965517 144.288895,21.8965517 L144.288895,21.8965517 Z" id="Shape" fill="#2F3B49" sketch:type="MSShapeGroup"></path>
            <path d="M174.823091,40.0248276 L171.212168,40.0248276 C170.78042,40.0248276 170.427483,39.6296552 170.427483,39.1951724 L170.427483,25.7668966 C170.427483,22.7255172 169.799049,21.9358621 167.601245,21.9358621 C166.856308,21.9358621 165.364378,22.1731034 163.951944,22.9234483 C164.069818,23.7924138 164.108881,24.7793103 164.108881,25.7668966 L164.108881,39.1951724 C164.108881,39.6296552 163.754573,40.0248276 163.32351,40.0248276 L159.712587,40.0248276 C159.280839,40.0248276 158.927902,39.6296552 158.927902,39.1951724 L158.927902,25.7668966 C158.927902,22.7255172 158.417343,21.9358621 156.220224,21.9358621 C155.395105,21.9358621 154.21842,22.3703448 152.609301,23.2393103 L152.609301,39.1951724 C152.609301,39.6296552 152.254993,40.0248276 151.82393,40.0248276 L148.214378,40.0248276 C147.782629,40.0248276 147.429007,39.6296552 147.429007,39.1951724 L147.429007,18.5393103 C147.429007,18.1048276 147.783315,17.7496552 148.214378,17.7496552 L151.62793,17.7496552 C152.059678,17.7496552 152.412615,18.1048276 152.412615,18.5393103 L152.412615,19.3689655 C154.061483,18.3027586 155.709664,17.4731034 158.024657,17.4731034 C160.26221,17.4731034 161.713021,18.1441379 162.616266,19.2503448 C164.617385,18.1441379 166.384126,17.4731034 169.091804,17.4731034 C174.429035,17.4731034 175.607091,21.1462069 175.607091,25.7668966 L175.607091,39.1951724 C175.608462,39.6296552 175.254839,40.0248276 174.823091,40.0248276 L174.823091,40.0248276 Z" id="Shape" fill="#2F3B49" sketch:type="MSShapeGroup"></path>
            <path d="M195.351007,40.0248276 L192.014895,40.0248276 C191.583147,40.0248276 191.23021,39.6682759 191.23021,39.2344828 L191.23021,38.6027586 C189.424406,39.7089655 187.580224,40.3406897 185.696294,40.3406897 C182.438993,40.3406897 178.907566,39.0765517 178.907566,33.7448276 L178.907566,33.5862069 C178.907566,29.0841379 181.655678,26.7544828 188.483469,26.7544828 L190.956084,26.7544828 L190.956084,25.0165517 C190.956084,22.4489655 189.818462,21.8172414 187.502783,21.8172414 C184.99042,21.8172414 182.39993,21.9751724 181.104685,22.1331034 L180.909371,22.1331034 C180.517371,22.1331034 180.203497,22.0151724 180.203497,21.462069 L180.203497,18.9344828 C180.203497,18.5 180.438559,18.2234483 180.947748,18.1048276 C182.519175,17.7889655 184.795105,17.4731034 187.502783,17.4731034 C193.075077,17.4731034 196.137063,19.9613793 196.137063,25.0165517 L196.137063,39.2337931 C196.136378,39.6689655 195.782755,40.0248276 195.351007,40.0248276 Z M190.956084,30.2296552 L188.483469,30.2296552 C184.912294,30.2296552 184.127608,31.3758621 184.127608,33.5862069 L184.127608,33.7441379 C184.127608,35.68 184.991105,36.1924138 186.953846,36.1924138 C188.366965,36.1924138 189.819147,35.7186207 190.956769,35.0868966 L190.956769,30.2296552 L190.956084,30.2296552 Z" id="Shape" fill="#2F3B49" sketch:type="MSShapeGroup"></path>
        </g>
    </g>
</svg>

<svg width="196" height="60" xmlns="http://www.w3.org/2000/svg">
  <defs>
    <linearGradient x1="0%" y1="50%" y2="50%" id="a">
      <stop stop-color="#EE2A7B" offset="0%"/>
      <stop stop-color="#BE1E2D" offset="100%"/>
    </linearGradient>
    <linearGradient x1="0%" y1="50%" y2="50%" id="b">
      <stop stop-color="#F7A51D" offset="0%"/>
      <stop stop-color="#D4605C" offset="100%"/>
    </linearGradient>
    <linearGradient x1="62.9%" y1="50%" x2="99.6%" y2="50%" id="c">
      <stop stop-color="#0076C0" offset="0%"/>
      <stop stop-color="#B0CBEA" offset="100%"/>
    </linearGradient>
    <linearGradient x1="99%" y1="60.2%" x2="-2.1%" y2="33.4%" id="d">
      <stop stop-color="#669C54" offset="0%"/>
      <stop stop-color="#ADD7A1" offset="100%"/>
    </linearGradient>
  </defs>
  <g class="logo__image">
    <path fill="url(#a)" d="M15.9 4.8c-5 3.5-6.6 11-4.8 17 2 7 10 9 14.2 14A8.2 8.2 0 0 1 23 48.3c-5.4 2.9-11.5.3-15.9-4.4C2.8 39-1.2 30.4.5 22.9A23 23 0 0 1 15.9 4.8"/>
    <path fill="url(#b)" d="M22.6 29.6c-7.6-4.1-8.6-9.7-8.8-11.7-1.2-13.1 14.3-20 25.9-17 12.1 3.2 12.6 13.2 12.6 13.2-11.6-2-22.6-.2-27.4 5.3-5 5.8-2.3 10.2-2.3 10.2z"/>
    <path fill="url(#c)" d="M23.9 20.8c1.2-1.4 3.2-2 5-2.3 18.8-2.2 29.3 15 20 31.2a21.7 21.7 0 0 1-29.4 7.4 35 35 0 0 1-5.3-4s-.8-1 0-1.6c.6-.2 1.8.2 1.8.2a18.8 18.8 0 0 0 22.2-20.2c-.6-7.5-10.2-13.2-15-9.7 0 0 .2-.5.7-1z"/>
    <path fill="url(#d)" d="M23.2 21.8c2.7-5 6.4-7.2 11.9-8.2 6.2-1.2 14-1.4 19.7 1.5 7.5 3.7 10.7 13.7 8.4 21.4-1.8 6.4-8 12.3-14.7 13.8.5-.1 1-1.7 1.4-2.6 3-7.9 2.4-18.1-4.2-23.8a21 21 0 0 0-18.5-4.6c-1 .3-3.4 1.4-4 2.5z"/>
  </g>
  <path d="M93.7 47.8h-3.6a.8.8 0 0 1-.8-.7v-7c-1.5.2-2.8.2-3.8.2-6.3 0-9.3-3.7-9.3-9.9v-3c0-6.2 3-10 9.3-10 2.5 0 5.5.5 8 1.1.8.2 1 .5 1 1v27.6c0 .4-.4.7-.8.7zM89.3 22c-.7-.1-2.4-.3-3.8-.3-3.3 0-4.2 2.4-4.2 5.7v3c0 3.3.9 5.7 4.2 5.7 1 0 2.7-.1 3.8-.3V22zm20.9-8.6h-1.8c-1.9 0-2.3.5-2.3 2.4v2h3.8c.4 0 .8.3.8.7V21c0 .4-.4.8-.8.8H106v17.5c0 .4-.4.8-.8.8h-3.6a.9.9 0 0 1-.8-.8V21.7l-3.5-.6c-.4 0-.8-.3-.8-.7v-1.9c0-.4.4-.7.8-.7h3.5v-2c0-5 2.7-6.3 6.8-6.3 1 0 1.6.2 2.4.3.3 0 .7.3.7.6v2.4c0 .4-.3.6-.6.6zm10.7 26.9c-6.2 0-9.4-4.1-9.4-9.8v-3.2c0-5.6 3.2-9.8 9.4-9.8 6.1 0 9.3 4.2 9.3 9.8v3.2c0 5.7-3.2 9.8-9.3 9.8zm4.2-13c0-3.2-1.5-5.3-4.2-5.3-2.8 0-4.2 2-4.2 5.3v3.2c0 3.2 1.4 5.3 4.2 5.3 2.7 0 4.2-2 4.2-5.3v-3.2zm19.2-5.4a11 11 0 0 0-5.4 1.4v15.9c0 .4-.4.8-.8.8h-3.6a.8.8 0 0 1-.8-.8V18.5c0-.4.3-.8.8-.8h3.4c.4 0 .8.4.8.8v.9a9 9 0 0 1 5.6-2c.4 0 .8.4.8.9V21c0 .4-.4.8-.8.8zM174.8 40h-3.6a.9.9 0 0 1-.8-.8V25.8c0-3-.6-3.9-2.8-3.9-.7 0-2.2.3-3.6 1l.1 2.9v13.4c0 .4-.3.8-.8.8h-3.6a.9.9 0 0 1-.8-.8V25.8c0-3-.5-3.9-2.7-3.9-.8 0-2 .5-3.6 1.3v16c0 .4-.3.8-.8.8h-3.6a.9.9 0 0 1-.8-.8V18.5c0-.4.4-.8.8-.8h3.4c.5 0 .8.4.8.8v.9c1.7-1.1 3.3-2 5.6-2s3.7.7 4.6 1.9c2-1.2 3.8-1.8 6.5-1.8 5.3 0 6.5 3.6 6.5 8.3v13.4c0 .4-.3.8-.8.8zm20.6 0H192a.8.8 0 0 1-.8-.8v-.6a10.6 10.6 0 0 1-5.5 1.7c-3.3 0-6.8-1.2-6.8-6.6v-.1c0-4.5 2.8-6.8 9.6-6.8h2.5V25c0-2.6-1.2-3.2-3.5-3.2-2.5 0-5.1.2-6.4.3h-.2c-.4 0-.7 0-.7-.6v-2.6c0-.4.2-.7.7-.8 1.6-.3 3.9-.6 6.6-.6 5.6 0 8.6 2.5 8.6 7.5v14.2c0 .5-.3.8-.7.8zm-4.4-9.8h-2.5c-3.6 0-4.4 1.2-4.4 3.4v.1c0 2 .9 2.5 2.9 2.5 1.4 0 2.8-.5 4-1.1v-4.9z" fill="#2F3B49"/>
</svg>
